packages/core/src/svgs/tokens/branded/ARK.svg

<svg width="24" height="24" viewBox="0 0 24 24" fill="none" xmlns="http://www.w3.org/2000/svg">
<path d="M11.9543 9.56L2 20.1851L12 3.71429L22 20.2857L11.9543 9.56ZM10.2823 13.7143L11.8823 12.0001L13.4 13.7143H10.2823ZM7.39085 16.5714L9.16343 14.8571H14.5457L16.3635 16.5714H7.39085Z" fill="#F70000"/>
</svg>

<svg xmlns="http://www.w3.org/2000/svg" width="24" height="24" fill="none" viewBox="0 0 24 24">
    <path fill="#F70000" d="M11.954 9.56 2 20.185l10-16.47 10 16.57zm-1.672 4.154 1.6-1.714 1.518 1.714zm-2.891 2.857 1.772-1.714h5.383l1.817 1.714z"/>
</svg>
